X: 35634
T: Sailing Into Walpole's Marsh
R: reel
M: 4/4
K: Adorian
~A3G ABcA|GE~E2 GED2|EAAG ABcd|edgd (3ABc dB|
AG~G2 AG~G2|GEDE GED2|A2AG ABcd|eBdB BAdB|
~A3B c3A|GE~E2 GED2|EAAG ABcd|edgd (3ABc dB|
AG~G2 AG~G2|GEDE GED2|A2AG ABcd|eBdB BAA2||
|:eg~g2 ea~a2|gedB cAA2|eg~g2 eaab|age^c d2ef|
~g3e ~a3f|gedB cAAB|~c2gc acgc|1 eage ~d2cd:|2 eage ~d3c||

